X:1
T:HONEY (I Miss You)
T:HONEY(I Miss You)
T:Bobby Russell
T:Bobby Russell
C:Bobby Russell
Z:All Rights Reserved
L:1/8
M:4/4
K:C
V:1 treble 
%%MIDI program 40
%%MIDI control 7 100
%%MIDI control 10 64
V:1
|:"F" cAcA dccA | cAcA dccA/-A/ |"Gm" GA _B6- | B4 z2 z _B |"C7" _BGBG cBBG |"Gm" _BGBG"C7" cBAG |1 %6
w: See the tree, how big it's grown, but|friend it has- n't ben too long, it *|was- n't big|* I|laughted at her and she got mad, the|first day that she plant- ed it, was|
w: Then the first snow came and she ran|out to brush the snow a- way so it|would- n't die|* Came|run- nin' in * all ex- cit- ed,|slipped and al- m,ost hurt her- self, I|
"F" FG A6- || A6 z2 :|2"F" F2 FF FG A2 || z2 z F F G2 A |"Gm" AG- G6 |"C7" z2 z G G2 FG | %12
w: just a twig-||laughed 'til I cried * *|And Hon- ey, I|miss you *|and I'm be- ing|
w: ||||||
"F" FG A4 z2 | z2 z F/F/ F2 GA |"Gm" AG- G6 |"C7" z2 z G G F2 E |"F" F8 | z4 z2 z A |: %18
w: good * *|And I'd love to be|with you, *|if on- ly I|could.|Yes,|
w: ||||||
"F" cAcA dccA | cAcA dccA |"Gm" GA _B6- | B4 z2 z G |"C7" _BGBG cBBG |"Gm" _BGBG"C7" cBAG |1 %24
w: one day while I was- n't home, while|she was there and all a- lone, the|an- gels came.\|* Now|all I have is mem- o- ries of|Hon- ey, and I wake up nights and|
w: Now my life's an emp- ty stage, where|Hon- ey lived and Hon- ey played, And|love grew up.|* A|small cloud pass- es o- ver- head and|cries down in the flow- er bed that|
"F" FG A6- || A6 z2 :|2"F" FG F6- || F6 z2 |] %28
w: call her name.||Hon- ey loved.||
w: ||||

